dist/img/paw.svg

<svg width="80" height="90" viewBox="0 0 80 90" fill="none" xmlns="http://www.w3.org/2000/svg">
<g clip-path="url(#clip0_0_32)">
<g filter="url(#filter0_d_0_32)">
<path d="M56.404 38.0791C51.9356 32.6364 46.2876 29.639 40.5001 29.639C34.7125 29.639 29.0644 32.6364 24.5962 38.0791C20.5799 42.9713 18.1821 49.1369 18.1821 54.572C18.1821 57.2122 18.9822 59.2233 20.56 60.5495C22.1174 61.8586 24.1735 62.3015 26.4673 62.3013C28.9082 62.3013 31.6184 61.7999 34.2813 61.3071C36.6083 60.8764 38.8061 60.4697 40.5002 60.4697C41.9623 60.4697 44.0239 60.8557 46.2061 61.2644C51.306 62.2197 57.0866 63.3021 60.4258 60.5012C62.0133 59.1697 62.8181 57.1748 62.8181 54.572C62.8183 49.1369 60.4205 42.9713 56.404 38.0791Z" fill="#FF8A00"/>
<path d="M56.8608 8.52494C55.2259 6.09318 52.8848 4.69861 50.4377 4.69861C47.9905 4.69861 45.6496 6.09331 44.0147 8.52494C42.5129 10.7588 41.6857 13.6924 41.6857 16.7854C41.6857 19.8784 42.5127 22.812 44.0147 25.0459C45.6496 27.4776 47.9907 28.8723 50.4377 28.8723C52.8849 28.8723 55.2259 27.4776 56.8608 25.0459C58.3626 22.812 59.1898 19.8784 59.1898 16.7854C59.1898 13.6924 58.3627 10.7587 56.8608 8.52494Z" fill="#FF8A00"/>
<path d="M36.9854 8.52477C35.3505 6.09301 33.0095 4.69844 30.5624 4.69844C28.1152 4.69844 25.7741 6.09314 24.1393 8.52477C22.6375 10.7587 21.8103 13.6923 21.8103 16.7853C21.8103 19.8783 22.6374 22.8119 24.1393 25.0458C25.7742 27.4775 28.1152 28.8722 30.5624 28.8722C33.0095 28.8722 35.3505 27.4775 36.9854 25.0458C38.4872 22.8119 39.3144 19.8784 39.3144 16.7853C39.3143 13.6923 38.4872 10.7585 36.9854 8.52477Z" fill="#FF8A00"/>
<path d="M73.3201 27.4977C72.6611 25.236 71.2484 23.5925 69.3425 22.8703C67.8087 22.2891 66.0774 22.3877 64.4674 23.1478C62.2487 24.1952 60.4351 26.3581 59.4921 29.0817C58.7215 31.3073 58.6254 33.6598 59.2217 35.706C59.8807 37.9678 61.2935 39.6113 63.1995 40.3335C63.8591 40.5834 64.555 40.7076 65.2622 40.7076C66.1996 40.7076 67.1569 40.4892 68.0746 40.0559C70.2934 39.0085 72.1069 36.8457 73.05 34.1222V34.1221C73.8205 31.8966 73.9166 29.544 73.3201 27.4977Z" fill="#FF8A00"/>
<path d="M21.5082 29.0814C20.5651 26.3578 18.7515 24.1951 16.5329 23.1477C14.9228 22.3876 13.1913 22.2892 11.6577 22.8702C9.75171 23.5925 8.33899 25.236 7.67992 27.4976C7.08362 29.5439 7.17974 31.8965 7.95037 34.122V34.1221C8.89365 36.8457 10.7071 39.0084 12.9257 40.0558C13.8435 40.4891 14.8007 40.7075 15.7381 40.7075C16.4453 40.7075 17.1414 40.5832 17.8008 40.3334C19.7071 39.611 21.1197 37.9675 21.7788 35.7059C22.3748 33.6598 22.2787 31.3072 21.5082 29.0814Z" fill="#FF8A00"/>
</g>
</g>
<path d="M8.57228 76.252C9.78028 76.252 10.7603 76.668 11.5123 77.5C12.2723 78.324 12.6523 79.4 12.6523 80.728C12.6523 82.056 12.2723 83.136 11.5123 83.968C10.7523 84.792 9.76428 85.204 8.54828 85.204C7.32428 85.204 6.33228 84.792 5.57228 83.968C4.82028 83.144 4.44428 82.064 4.44428 80.728C4.44428 79.432 4.81228 78.364 5.54828 77.524C6.29228 76.676 7.30028 76.252 8.57228 76.252ZM8.54828 77.512C7.76428 77.512 7.13628 77.804 6.66428 78.388C6.19228 78.964 5.95628 79.736 5.95628 80.704C5.95628 81.696 6.18828 82.484 6.65228 83.068C7.12428 83.652 7.76428 83.944 8.57228 83.944C9.34828 83.944 9.96828 83.652 10.4323 83.068C10.9043 82.476 11.1403 81.692 11.1403 80.716C11.1403 79.74 10.9043 78.964 10.4323 78.388C9.96828 77.804 9.34028 77.512 8.54828 77.512ZM19.9265 76.456V77.752H17.2025V85H15.7025V77.752H12.9785V76.456H19.9265ZM27.7958 76.456V85H26.2958V77.752H22.3838V85H20.8838V76.456H27.7958ZM29.592 76.456H33.3C34.22 76.456 34.944 76.676 35.472 77.116C36.008 77.548 36.276 78.196 36.276 79.06C36.276 79.876 36.028 80.524 35.532 81.004C35.036 81.476 34.36 81.712 33.504 81.712H31.092V85H29.592V76.456ZM31.092 77.704V80.5H33.18C34.268 80.5 34.812 80.032 34.812 79.096C34.812 78.168 34.224 77.704 33.048 77.704H31.092ZM40.5813 76.444L43.8813 85H42.2733L41.4573 82.732H38.0733L37.2333 85H35.6852L38.9853 76.444H40.5813ZM41.0613 81.604L39.7893 78.004L38.4573 81.604H41.0613ZM44.6732 76.456H48.5732C49.4692 76.456 50.1532 76.652 50.6252 77.044C51.1052 77.428 51.3452 77.948 51.3452 78.604C51.3452 79.012 51.2332 79.38 51.0092 79.708C50.7852 80.028 50.4892 80.26 50.1212 80.404C50.6172 80.524 51.0092 80.764 51.2972 81.124C51.5852 81.484 51.7292 81.936 51.7292 82.48C51.7292 83.232 51.4772 83.84 50.9732 84.304C50.4772 84.768 49.8292 85 49.0292 85H44.6732V76.456ZM46.1372 77.668V80.02H48.1772C48.7532 80.02 49.1772 79.932 49.4492 79.756C49.7212 79.572 49.8572 79.268 49.8572 78.844C49.8572 78.364 49.7132 78.048 49.4252 77.896C49.1452 77.744 48.7452 77.668 48.2252 77.668H46.1372ZM46.1372 81.1V83.776H48.3812C48.9572 83.776 49.4092 83.68 49.7372 83.488C50.0652 83.296 50.2292 82.948 50.2292 82.444C50.2292 82.164 50.1772 81.932 50.0732 81.748C49.9772 81.556 49.8332 81.416 49.6412 81.328C49.4572 81.24 49.2652 81.18 49.0652 81.148C48.8652 81.116 48.6292 81.1 48.3572 81.1H46.1372ZM53.1104 85V76.456H54.6104V83.008L58.2824 76.456H60.0224V85H58.5224V78.448L54.8504 85H53.1104ZM67.9265 76.456V77.752H65.2025V85H63.7025V77.752H60.9785V76.456H67.9265ZM75.6158 82.348C75.6158 83.196 75.3598 83.852 74.8478 84.316C74.3438 84.772 73.6278 85 72.6998 85H68.9198V76.456H70.4198V79.72H72.6998C73.6358 79.72 74.3558 79.948 74.8598 80.404C75.3638 80.86 75.6158 81.508 75.6158 82.348ZM74.1158 82.384C74.1158 81.936 73.9838 81.584 73.7198 81.328C73.4558 81.072 73.0878 80.944 72.6158 80.944H70.4198V83.776H72.6398C73.6238 83.776 74.1158 83.312 74.1158 82.384Z" fill="#FF8A00"/>
<defs>
<filter id="filter0_d_0_32" x="1.29333" y="2.69844" width="78.4135" height="69.6029" filterUnits="userSpaceOnUse" color-interpolation-filters="sRGB">
<feFlood flood-opacity="0" result="BackgroundImageFix"/>
<feColorMatrix in="SourceAlpha" type="matrix" values="0 0 0 0 0 0 0 0 0 0 0 0 0 0 0 0 0 0 127 0" result="hardAlpha"/>
<feOffset dy="4"/>
<feGaussianBlur stdDeviation="3"/>
<feComposite in2="hardAlpha" operator="out"/>
<feColorMatrix type="matrix" values="0 0 0 0 0 0 0 0 0 0 0 0 0 0 0 0 0 0 0.25 0"/>
<feBlend mode="normal" in2="BackgroundImageFix" result="effect1_dropShadow_0_32"/>
<feBlend mode="normal" in="SourceGraphic" in2="effect1_dropShadow_0_32" result="shape"/>
</filter>
<clipPath id="clip0_0_32">
<rect width="73" height="71" fill="white" transform="translate(4)"/>
</clipPath>
</defs>
</svg>

<svg width="80" height="90" fill="none" xmlns="http://www.w3.org/2000/svg"><g filter="url(#b)" fill="#FF8A00" clip-path="url(#a)"><path d="M56.404 38.08c-4.468-5.444-10.116-8.441-15.904-8.441s-11.436 2.997-15.904 8.44c-4.016 4.892-6.414 11.058-6.414 16.493 0 2.64.8 4.651 2.378 5.977 1.557 1.31 3.614 1.752 5.907 1.752 2.441 0 5.151-.501 7.814-.994 2.327-.43 4.525-.837 6.22-.837 1.461 0 3.523.386 5.705.794 5.1.956 10.88 2.038 14.22-.763 1.587-1.331 2.392-3.326 2.392-5.929 0-5.435-2.398-11.6-6.414-16.493ZM56.86 8.525c-1.634-2.432-3.975-3.826-6.422-3.826-2.448 0-4.788 1.394-6.423 3.826-1.502 2.234-2.33 5.167-2.33 8.26s.828 6.027 2.33 8.26c1.635 2.433 3.976 3.827 6.423 3.827s4.788-1.394 6.423-3.826c1.502-2.234 2.329-5.168 2.329-8.26 0-3.094-.827-6.027-2.33-8.261ZM36.985 8.525c-1.635-2.432-3.975-3.827-6.423-3.827-2.447 0-4.788 1.395-6.423 3.827-1.502 2.234-2.329 5.167-2.329 8.26s.827 6.027 2.33 8.26c1.634 2.432 3.975 3.827 6.422 3.827 2.448 0 4.788-1.395 6.423-3.826 1.502-2.234 2.33-5.168 2.33-8.26 0-3.094-.828-6.028-2.33-8.261ZM73.32 27.498c-.659-2.262-2.072-3.905-3.977-4.628-1.534-.58-3.266-.482-4.876.278-2.218 1.047-4.032 3.21-4.975 5.934-.77 2.225-.867 4.578-.27 6.624.659 2.262 2.072 3.905 3.977 4.627.66.25 1.356.375 2.063.375a6.59 6.59 0 0 0 2.813-.652c2.218-1.047 4.032-3.21 4.975-5.934.77-2.225.867-4.578.27-6.624ZM21.508 29.081c-.943-2.723-2.756-4.886-4.975-5.933-1.61-.76-3.342-.859-4.875-.278-1.906.723-3.319 2.366-3.978 4.628-.596 2.046-.5 4.398.27 6.624.944 2.724 2.757 4.886 4.976 5.934a6.59 6.59 0 0 0 2.812.652c.707 0 1.403-.125 2.063-.375 1.906-.722 3.319-2.365 3.978-4.627.596-2.046.5-4.399-.27-6.625Z"/></g><path d="M8.572 76.252c1.208 0 2.188.416 2.94 1.248.76.824 1.14 1.9 1.14 3.228 0 1.328-.38 2.408-1.14 3.24-.76.824-1.748 1.236-2.964 1.236-1.224 0-2.216-.412-2.976-1.236-.752-.824-1.128-1.904-1.128-3.24 0-1.296.368-2.364 1.104-3.204.744-.848 1.752-1.272 3.024-1.272Zm-.024 1.26c-.784 0-1.412.292-1.884.876-.472.576-.708 1.348-.708 2.316 0 .992.232 1.78.696 2.364.472.584 1.112.876 1.92.876.776 0 1.396-.292 1.86-.876.472-.592.708-1.376.708-2.352s-.236-1.752-.708-2.328c-.464-.584-1.092-.876-1.884-.876Zm11.379-1.056v1.296h-2.724V85h-1.5v-7.248h-2.724v-1.296h6.948Zm7.869 0V85h-1.5v-7.248h-3.912V85h-1.5v-8.544h6.912Zm1.796 0H33.3c.92 0 1.644.22 2.172.66.536.432.804 1.08.804 1.944 0 .816-.248 1.464-.744 1.944-.496.472-1.172.708-2.028.708h-2.412V85h-1.5v-8.544Zm1.5 1.248V80.5h2.088c1.088 0 1.632-.468 1.632-1.404 0-.928-.588-1.392-1.764-1.392h-1.956Zm9.49-1.26 3.3 8.556h-1.609l-.816-2.268h-3.384L37.233 85h-1.548l3.3-8.556h1.596Zm.48 5.16-1.273-3.6-1.332 3.6h2.604Zm3.611-5.148h3.9c.896 0 1.58.196 2.052.588.48.384.72.904.72 1.56 0 .408-.112.776-.336 1.104-.224.32-.52.552-.888.696.496.12.888.36 1.176.72.288.36.432.812.432 1.356 0 .752-.252 1.36-.756 1.824-.496.464-1.144.696-1.944.696h-4.356v-8.544Zm1.464 1.212v2.352h2.04c.576 0 1-.088 1.272-.264.272-.184.408-.488.408-.912 0-.48-.144-.796-.432-.948-.28-.152-.68-.228-1.2-.228h-2.088Zm0 3.432v2.676h2.244c.576 0 1.028-.096 1.356-.288.328-.192.492-.54.492-1.044 0-.28-.052-.512-.156-.696a.882.882 0 0 0-.432-.42 2.096 2.096 0 0 0-.576-.18 4.544 4.544 0 0 0-.708-.048h-2.22ZM53.11 85v-8.544h1.5v6.552l3.672-6.552h1.74V85h-1.5v-6.552L54.85 85h-1.74Zm14.817-8.544v1.296h-2.725V85h-1.5v-7.248h-2.724v-1.296h6.949Zm7.689 5.892c0 .848-.256 1.504-.768 1.968-.504.456-1.22.684-2.148.684h-3.78v-8.544h1.5v3.264h2.28c.936 0 1.656.228 2.16.684.504.456.756 1.104.756 1.944Zm-1.5.036c0-.448-.132-.8-.396-1.056s-.632-.384-1.104-.384H70.42v2.832h2.22c.984 0 1.476-.464 1.476-1.392Z" fill="#FF8A00"/><defs><clipPath id="a"><path fill="#fff" transform="translate(4)" d="M0 0h73v71H0z"/></clipPath><filter id="b" x="1.293" y="2.698" width="78.413" height="69.603" filterUnits="userSpaceOnUse" color-interpolation-filters="sRGB"><feFlood flood-opacity="0" result="BackgroundImageFix"/><feColorMatrix in="SourceAlpha" values="0 0 0 0 0 0 0 0 0 0 0 0 0 0 0 0 0 0 127 0" result="hardAlpha"/><feOffset dy="4"/><feGaussianBlur stdDeviation="3"/><feComposite in2="hardAlpha" operator="out"/><feColorMatrix values="0 0 0 0 0 0 0 0 0 0 0 0 0 0 0 0 0 0 0.25 0"/><feBlend in2="BackgroundImageFix" result="effect1_dropShadow_0_32"/><feBlend in="SourceGraphic" in2="effect1_dropShadow_0_32" result="shape"/></filter></defs></svg>
